plus-circle-multiple.svg

<svg fill="currentColor" viewBox="0 0 24 24"><path d="M2 12c0-2.8 1.6-5.2 4-6.3V3.5C2.5 4.8 0 8.1 0 12s2.5 7.2 6 8.5v-2.2c-2.4-1.1-4-3.5-4-6.3m13-9c-5 0-9 4-9 9s4 9 9 9 9-4 9-9-4-9-9-9m5 10h-4v4h-2v-4h-4v-2h4V7h2v4h4z"/></svg>

<svg  viewBox="0 0 24 24" fill="currentColor"><path  d="M2 12C2 9.2 3.6 6.8 6 5.7V3.5C2.5 4.8 0 8.1 0 12S2.5 19.2 6 20.5V18.3C3.6 17.2 2 14.8 2 12M15 3C10 3 6 7 6 12S10 21 15 21 24 17 24 12 20 3 15 3M20 13H16V17H14V13H10V11H14V7H16V11H20V13Z"/></svg>
